symbols/web/drive_file_move/materialsymbolsrounded/drive_file_move_wght500grad200_24px.svg

<svg xmlns="http://www.w3.org/2000/svg" height="24" width="24"><path d="m11.575 14.5-.5.475q-.375.4-.375.937 0 .538.4.863.35.35.888.35.537 0 .887-.35l2.55-2.575q.4-.4.4-.988 0-.587-.4-.987l-2.55-2.575q-.35-.35-.887-.35-.538 0-.888.35-.375.375-.375.9t.35.9l.5.475H8.8q-.525 0-.9.375t-.375.9q0 .55.375.925t.9.375ZM3.95 21.05q-1.175 0-2-.825t-.825-2V5.55q0-1.175.825-2t2-.825h4.225q.575 0 1.087.225.513.225.913.6L12 5.375h8.05q1.175 0 2 .825t.825 2v10.025q0 1.175-.825 2t-2 .825Zm0-15.5v12.675h16.1V8.2h-9.225l-2.65-2.65H3.95Zm0 0v12.675Z"/></svg>

<svg xmlns="http://www.w3.org/2000/svg" height="24" width="24"><path d="M11.575 14.5 11.075 14.975Q10.7 15.375 10.7 15.912Q10.7 16.45 11.1 16.775Q11.45 17.125 11.988 17.125Q12.525 17.125 12.875 16.775L15.425 14.2Q15.825 13.8 15.825 13.212Q15.825 12.625 15.425 12.225L12.875 9.65Q12.525 9.3 11.988 9.3Q11.45 9.3 11.1 9.65Q10.725 10.025 10.725 10.55Q10.725 11.075 11.075 11.45L11.575 11.925H8.8Q8.275 11.925 7.9 12.3Q7.525 12.675 7.525 13.2Q7.525 13.75 7.9 14.125Q8.275 14.5 8.8 14.5ZM3.95 21.05Q2.775 21.05 1.95 20.225Q1.125 19.4 1.125 18.225V5.55Q1.125 4.375 1.95 3.55Q2.775 2.725 3.95 2.725H8.175Q8.75 2.725 9.262 2.95Q9.775 3.175 10.175 3.55L12 5.375H20.05Q21.225 5.375 22.05 6.2Q22.875 7.025 22.875 8.2V18.225Q22.875 19.4 22.05 20.225Q21.225 21.05 20.05 21.05ZM3.95 5.55V18.225Q3.95 18.225 3.95 18.225Q3.95 18.225 3.95 18.225H20.05Q20.05 18.225 20.05 18.225Q20.05 18.225 20.05 18.225V8.2Q20.05 8.2 20.05 8.2Q20.05 8.2 20.05 8.2H10.825L8.175 5.55H3.95Q3.95 5.55 3.95 5.55Q3.95 5.55 3.95 5.55ZM3.95 5.55Q3.95 5.55 3.95 5.55Q3.95 5.55 3.95 5.55V8.2Q3.95 8.2 3.95 8.2Q3.95 8.2 3.95 8.2V18.225Q3.95 18.225 3.95 18.225Q3.95 18.225 3.95 18.225Q3.95 18.225 3.95 18.225Q3.95 18.225 3.95 18.225Z"/></svg>
